X:1
T:Wir loben alle Jesum
T:Georg Vogler
T:Source : Catechismus---Würzburg---J.Volmari---1652. Editor : André Vierendeels (25/09/17)
T:Notes : Original clefs C1, F4 Text Middle German
T:Wir loben alle Jesum 
T:©
T:©
C:Georg Vogler
Z:©
%%score [ 1 2 ]
L:1/8
Q:1/4=120
M:2/2
K:C
V:1 treble nm="Soprano" snm="S"
V:2 bass nm="Bass" snm="B"
V:1
 z4 z2 G2 |"^1)" G4 G4 | A4 G4 | c4 d4 | c8 | B4 d4 | e4 d4 | c2 B2 A4 | G4 z2 G2 | c4 B4 | %10
w: Wir|lo- ben|al- le|Je- sum|Christ,|dasz er|für uns|ge- stel- let|ist, zu|dem Tem-|
w: Wir|lo- ben|auch die|Jung- fraw|zart,|von der|disz Kind|ge- stel- let|ward. Sehr|Kräff- *|
 d4 A2 A2 | G4 F4 | D4 z2 D2 | A4 A4 | B4 d4 | c2 B2 A4 | G4 A4 | ^F2 G2 A4 | G8 |] %19
w: pel, sei- nem|Vat- ter|werth, desz|fre- wet|sich die|gan- * tze|Erd, Al-|le- * lu-|ja.|
w: tig al- le|Sün- der|tröst, disz|Op- ffer|so cie|Welt er- *|löst, Al-|le- * lu-|ja.|
V:2
 z4 z2 G,2 |"^2)""^1)""^3)" G,4 G,4 | D,4 E,4 | C,4 G,4 | E,8 | G,4 G,4 | C,4 D,4 | E,2 G,2 D,4 | %8
w: Wir|lo- ben|al- le|Je- sum|Christ,|dasz er|für uns|ge- stel- let|
w: Desz|ew- gen|Vat- ters|ei- nig|Kind,|Sieh, dasz|es dich|im Tem- pel|
 G,,4 z2 G,2 | F,4 G,4 | D,4 D,2 D,2 | G,,4 A,,4 | D,4 z2 D,2 | A,,4 D,4 | G,,4 B,,4 | C,4 D,4 | %16
w: ist, zu|dem Tem-|pel, sei- nem|Vat- ter|werth, desz|fre- wet|sich die|gan- tze|
w: find: in|un- *|serm ar- men|Fleisch und|Blut, zue|Kir- chen|kombt das|höch- ste|
 E,4 A,,4 | D,2 E,2 D,4 | G,,8 |] %19
w: Erd, Al-|le- * lu-|ja.|
w: Gut, Al-|le- * lu-|ja.|

